src/assets/icons/twitter.svg

<?xml version="1.0" encoding="UTF-8"?>
<svg width="36px" height="36px" viewBox="0 0 36 36" version="1.1" xmlns="http://www.w3.org/2000/svg" xmlns:xlink="http://www.w3.org/1999/xlink">
    <!-- Generator: Sketch 53.2 (72643) - https://sketchapp.com -->
    <title>twitter outlined</title>
    <desc>Created with Sketch.</desc>
    <g id="twitter-outlined" stroke="none" stroke-width="1" fill="none" fill-rule="evenodd">
        <circle id="Oval" stroke="#FFFFFF" cx="18" cy="18" r="17.5"></circle>
        <path d="M25.9442107,14.0482189 C25.9569061,14.2258759 25.9569061,14.4035719 25.9569061,14.5812288 C25.9569061,20 21.832554,26.2436963 14.2944387,26.2436963 C11.9720858,26.2436963 9.81473365,25.5710764 8,24.403611 C8.32996223,24.441658 8.64719003,24.4543533 8.98984762,24.4543533 C10.906066,24.4543533 12.6700573,23.8071633 14.0786956,22.7030965 C12.2766573,22.6650104 10.7664952,21.4848105 10.2461806,19.8604291 C10.5000098,19.8984762 10.7537998,19.9238669 11.0203243,19.9238669 C11.3883335,19.9238669 11.7563819,19.8730854 12.0990004,19.784296 C10.220829,19.4035524 8.81215161,17.7538194 8.81215161,15.7614288 L8.81215161,15.7106864 C9.3578178,16.0152579 9.9923906,16.2056102 10.6649323,16.2309618 C9.56086547,15.4949043 8.83754233,14.2385712 8.83754233,12.8172376 C8.83754233,12.0558283 9.04055094,11.3578569 9.39590389,10.7487139 C11.4136852,13.2360283 14.4467049,14.8603705 17.8476947,15.0380666 C17.784257,14.7334951 17.7461709,14.4162673 17.7461709,14.0990004 C17.7461709,11.8400853 19.5735999,10 21.8451713,10 C23.0253712,10 24.0913519,10.4949238 24.8401048,11.2944191 C25.7664757,11.1167622 26.6547994,10.7741046 27.4416384,10.3045715 C27.1370279,11.2563721 26.4898379,12.0558674 25.6396002,12.5634475 C26.4644862,12.4746581 27.2639815,12.2461806 28,11.9289528 C27.4417166,12.7411045 26.743706,13.4644276 25.9442107,14.0482189 Z" id="Path" fill="#FFFFFF" fill-rule="nonzero"></path>
    </g>
</svg>

<svg width="36" height="36" xmlns="http://www.w3.org/2000/svg"><g fill="none" fill-rule="evenodd"><circle stroke="#FFF" cx="18" cy="18" r="17.5"/><path d="M25.944 14.048c.013.178.013.356.013.533 0 5.419-4.124 11.663-11.663 11.663-2.322 0-4.48-.673-6.294-1.84.33.038.647.05.99.05a8.21 8.21 0 0 0 5.089-1.75 4.106 4.106 0 0 1-3.833-2.844c.254.038.508.064.774.064.368 0 .736-.05 1.079-.14a4.1 4.1 0 0 1-3.287-4.023v-.05c.546.304 1.18.495 1.853.52a4.096 4.096 0 0 1-1.827-3.414c0-.761.203-1.46.558-2.068a11.651 11.651 0 0 0 8.452 4.29 4.627 4.627 0 0 1-.102-.94 4.097 4.097 0 0 1 4.1-4.099 4.09 4.09 0 0 1 2.994 1.294 8.07 8.07 0 0 0 2.602-.99 4.088 4.088 0 0 1-1.802 2.26 8.217 8.217 0 0 0 2.36-.635 8.811 8.811 0 0 1-2.056 2.12z" fill="#FFF" fill-rule="nonzero"/></g></svg>
